packages/icons/svg/Outline/speaker.svg

<svg fill="none" height="24" viewBox="0 0 24 24" width="24" xmlns="http://www.w3.org/2000/svg"><path clip-rule="evenodd" d="m18 19.0001c0 .552-.448 1-1 1h-9.99998c-.552 0-1-.448-1-1v-14.00004c0-.55199.448-.99999 1-.99999h9.99998c.552 0 1 .448 1 .99999zm-1-17.0001h-10c-1.654 0-3 1.346-3 3v14c0 1.654 1.346 3 3 3h10c1.654 0 3-1.346 3-3v-14c0-1.654-1.346-3-3-3zm-5 15c-.827 0-1.5-.673-1.5-1.5s.673-1.5 1.5-1.5 1.5.673 1.5 1.5-.673 1.5-1.5 1.5zm0-5.0001c-1.93 0-3.5 1.57-3.5 3.5s1.57 3.5 3.5 3.5 3.5-1.57 3.5-3.5-1.57-3.5-3.5-3.5zm0-4.99984c.552 0 1 .44801 1 1.00001s-.448 1-1 1-1-.448-1-1 .448-1.00001 1-1.00001zm0 3.99994c1.654 0 3-1.346 3-3s-1.346-3-3-3-2.99998 1.346-2.99998 3 1.34598 3 2.99998 3z" fill="#6b7280" fill-rule="evenodd"/></svg>

<svg width="24" height="24" viewBox="0 0 24 24" fill="none" xmlns="http://www.w3.org/2000/svg">
<g id="Icon/Outline/speaker">
<path id="Mask" fill-rule="evenodd" clip-rule="evenodd" d="M18 19C18 19.552 17.552 20 17 20H7C6.448 20 6 19.552 6 19V5C6 4.448 6.448 4 7 4H17C17.552 4 18 4.448 18 5V19ZM17 2H7C5.346 2 4 3.346 4 5V19C4 20.654 5.346 22 7 22H17C18.654 22 20 20.654 20 19V5C20 3.346 18.654 2 17 2ZM12 17C11.173 17 10.5 16.327 10.5 15.5C10.5 14.673 11.173 14 12 14C12.827 14 13.5 14.673 13.5 15.5C13.5 16.327 12.827 17 12 17ZM12 12C10.07 12 8.5 13.57 8.5 15.5C8.5 17.43 10.07 19 12 19C13.93 19 15.5 17.43 15.5 15.5C15.5 13.57 13.93 12 12 12ZM12 7C12.552 7 13 7.448 13 8C13 8.552 12.552 9 12 9C11.448 9 11 8.552 11 8C11 7.448 11.448 7 12 7ZM12 11C13.654 11 15 9.654 15 8C15 6.346 13.654 5 12 5C10.346 5 9 6.346 9 8C9 9.654 10.346 11 12 11Z" fill="#000000"/>
</g>
</svg>
